X:1
T:Title
L:1/8
M:3/8
K:Bb
V:1 treble nm="Grand Piano"
V:1
 z z[Q:1/4=100] F | B2 c | d2 c | B2 A | G2 F | A3 | E3- | E2 E | A2 B | c2 B | A2 G | F2 G | D3- | %13
 D2 D | G2 A | B2 A | G2 ^F | G2 A | B3 | A3- | A2 d | d2 c | B2 A | G2 F | G2 A | B3- | %26
[M:1/4] B2 |[M:1/8] D/E/ |[M:3/8] F2 G | F2 D/E/ | F2 G | F2 D/E/ | F2 G | F2 D/E/ | F2 E/D/ | %35
 C2 C/D/ | E2 F | E2 C/D/ | E2 F | E2 C/D/ | E2 F | G2 E | D3- | D2 D/E/ | F2 G | F2 D/E/ | F2 G | %47
 F2 D/E/ | F2 G | F2 D/E/ | F2 E/D/ | C2 C/D/ | E2 F | E2 C/D/ | E2 F | E2 C/D/ | E2 F | G2 A | %58
 B3- | B2 z |] %60

